svg/fluentui-system-icons/ic_fluent_text_grammar_wand_16_filled.svg

<svg width="16" height="16" viewBox="0 0 16 16" fill="none" xmlns="http://www.w3.org/2000/svg">
<path d="M2.75 2.5C2.33579 2.5 2 2.83579 2 3.25C2 3.66421 2.33579 4 2.75 4H13.25C13.6642 4 14 3.66421 14 3.25C14 2.83579 13.6642 2.5 13.25 2.5H2.75ZM4.43997 12.4352L5.37625 11.5H2.75C2.33579 11.5 2 11.8358 2 12.25C2 12.6642 2.33579 13 2.75 13H4.08417C4.15636 12.7937 4.27496 12.6 4.43997 12.4352ZM2.75 8.5H6C6 9.13695 6.39932 9.68984 6.97337 9.90476L6.87802 10H2.75C2.33579 10 2 9.66421 2 9.25C2 8.83579 2.33579 8.5 2.75 8.5ZM2.75 5.5C2.33579 5.5 2 5.83579 2 6.25C2 6.66421 2.33579 7 2.75 7H7.25001C7.66422 7 8.00001 6.66421 8.00001 6.25C8.00001 5.83579 7.66422 5.5 7.25001 5.5H2.75ZM10.9963 5.43892C10.9654 5.18829 10.7525 5 10.5 5C10.2475 5 10.0346 5.18829 10.0037 5.43892L9.91342 6.17274C9.8013 7.08362 9.08362 7.8013 8.17274 7.91342L7.43892 8.00375C7.18829 8.0346 7 8.24748 7 8.5C7 8.75252 7.18829 8.9654 7.43892 8.99625L8.17274 9.08658C9.08362 9.1987 9.8013 9.91638 9.91342 10.8273L10.0037 11.5611C10.0346 11.8117 10.2475 12 10.5 12C10.7525 12 10.9654 11.8117 10.9963 11.5611L11.0866 10.8273C11.1987 9.91638 11.9164 9.1987 12.8273 9.08658L13.5611 8.99625C13.8117 8.9654 14 8.75252 14 8.5C14 8.24748 13.8117 8.0346 13.5611 8.00375L12.8273 7.91342C11.9164 7.8013 11.1987 7.08362 11.0866 6.17274L10.9963 5.43892ZM8.85376 10.1467C9.04891 10.342 9.04872 10.6586 8.85334 10.8538L5.85335 13.8502C5.65797 14.0454 5.34139 14.0452 5.14624 13.8498C4.95109 13.6544 4.95128 13.3379 5.14665 13.1427L8.14665 10.1462C8.34203 9.95109 8.65861 9.95128 8.85376 10.1467Z" fill="#212121"/>
</svg>

<svg xmlns="http://www.w3.org/2000/svg" width="16" height="16"><path d="M2.75 2.5a.75.75 0 0 0 0 1.5h10.5a.75.75 0 0 0 0-1.5H2.75Zm1.69 9.935.936-.935H2.75a.75.75 0 0 0 0 1.5h1.334c.072-.206.191-.4.356-.565ZM2.75 8.5H6c0 .637.4 1.19.973 1.405L6.878 10H2.75a.75.75 0 0 1 0-1.5Zm0-3a.75.75 0 0 0 0 1.5h4.5a.75.75 0 0 0 0-1.5h-4.5Zm8.246-.061a.5.5 0 0 0-.992 0l-.09.734a2 2 0 0 1-1.741 1.74l-.734.09a.5.5 0 0 0 0 .993l.734.09a2 2 0 0 1 1.74 1.741l.09.734a.5.5 0 0 0 .993 0l.09-.734a2 2 0 0 1 1.741-1.74l.734-.09a.5.5 0 0 0 0-.993l-.734-.09a2 2 0 0 1-1.74-1.741l-.09-.734Zm-2.142 4.708a.5.5 0 0 1 0 .707l-3 2.996a.5.5 0 1 1-.707-.707l3-2.997a.5.5 0 0 1 .707 0Z"/></svg>
